tenants/deondernemer/icons/check.svg

<svg fill="none" height="24" viewBox="0 0 24 24" width="24" xmlns="http://www.w3.org/2000/svg"><path d="m19.8668 4.15958-11.50588 11.95322-4.22768-4.392c-.20497-.213-.53732-.213-.74233 0l-1.23718 1.2853c-.20497.2129-.20497.5582 0 .7712l5.836 6.0629c.20498.2129.53732.2129.74234 0l13.11423-13.62414c.2049-.21294.2049-.55821 0-.77119l-1.2372-1.28529c-.205-.21294-.5373-.21294-.7423 0z" fill="#000"/></svg>

<svg width="24" height="24" viewBox="0 0 24 24" fill="none" xmlns="http://www.w3.org/2000/svg">
<path d="M19.8668 4.15958L8.36092 16.1128L4.13324 11.7208C3.92827 11.5078 3.59592 11.5078 3.39091 11.7208L2.15373 13.0061C1.94876 13.219 1.94876 13.5643 2.15373 13.7773L7.98973 19.8402C8.19471 20.0531 8.52705 20.0531 8.73207 19.8402L21.8463 6.21606C22.0512 6.00312 22.0512 5.65785 21.8463 5.44487L20.6091 4.15958C20.4041 3.94664 20.0718 3.94664 19.8668 4.15958Z" fill="black"/>
</svg>
